X: 1
T: Broadstone Inn, The
M: 4/4
L: 1/8
R: reel
K:Ador
cABG AGED|EAA^G A=GED|EAce gedc|BGGF G2ed|
ceBe AGED|EAA^G ~A2AB|cE~E2 BE~E2|edcB A^GAB:|
|:cABe edcB|Aaa^g a=ged|cAed cBAG|EAA^G ~A2AB|
ce (3gfe aged|cedc BG~G2|cAba gd~d2|edcB A^GAB:|
